X: 39025
T: Swan LK243
R: waltz
M: 3/4
K: Fmajor
FG|:Af ec Ac|G4FB|AF3Fc|AB GA FG|
Af ec Ac|GA ce f2|AB G2 Ac|F4[1FG:|2 FE||
|:D2 DF CF|B,2 B,C DF|G2G2FG|AF GF EC||
[1D2 DF CF|B,2B,C DC|B,A, B,C DB,|C2E2 F(3G/F/E/:|
[2D2 DF CF|B,2B,F CF|B,2 B,C DF|G3 A ce||
|:f2 f2(3fge|c4BA|BcF3A|BA Bc [1de|
fg f2 (3fge|c4BA|BcF2F2|F3D (3Ace:|2 eg|
ag f2 (3fge|c4BA|BcF2F2|F4:|

